X: 8
P: No. VIII.
M: 6/8
L: 1/8
K: D
V: 1
|: g |\
fef d2e | fga  B2A | Bcd AFA | BEE E2g |\
fef d2e | fga TB2A | Bcd AFA | FDD D2 :|
V: 2 clef=bass middle=d
a |\
d2z d2z | d3 g2f | g3 d3 | gAA A2z |\
d3  d3  | d3 g2f | g3 a3 | dDD D2 :|
|: z |\
d3 d2a | d'3 d3  | g3 d3 | gAA A2z |\
d3 d2a | d'3 d3  | g3 a3 | dDD D2 :|

